groups/nitrogen/nitroso.svg

<?xml version='1.0' encoding='iso-8859-1'?>
<svg version='1.1' baseProfile='full'
              xmlns='http://www.w3.org/2000/svg'
                      xmlns:rdkit='http://www.rdkit.org/xml'
                      xmlns:xlink='http://www.w3.org/1999/xlink'
                  xml:space='preserve'
width='256px' height='256px' viewBox='0 0 256 256'>
<!-- END OF HEADER -->
<rect style='opacity:1.0;fill:#FFFFFF;stroke:none' width='256.0' height='256.0' x='0.0' y='0.0'> </rect>
<path class='bond-0 atom-0 atom-1' d='M 212.6,114.2 L 136.0,158.5' style='fill:none;fill-rule:evenodd;stroke:#000000;stroke-width:2.0px;stroke-linecap:butt;stroke-linejoin:miter;stroke-opacity:1' />
<path class='bond-1 atom-1 atom-2' d='M 109.0,151.6 L 47.9,116.4' style='fill:none;fill-rule:evenodd;stroke:#000000;stroke-width:2.0px;stroke-linecap:butt;stroke-linejoin:miter;stroke-opacity:1' />
<path class='bond-1 atom-1 atom-2' d='M 101.0,165.4 L 39.9,130.2' style='fill:none;fill-rule:evenodd;stroke:#000000;stroke-width:2.0px;stroke-linecap:butt;stroke-linejoin:miter;stroke-opacity:1' />
<path class='atom-1' d='M185.962,68.1502 C182.509,70.1477 185.173,74.7509 188.625,72.7534 C192.078,70.7559 194.741,75.3592 191.289,77.3567 C187.836,79.3542 190.499,83.9575 193.952,81.96 C197.404,79.9625 200.068,84.5658 196.615,86.5633 C193.163,88.5608 195.826,93.164 199.278,91.1665 C202.731,89.169 205.394,93.7723 201.942,95.7698 C198.489,97.7673 201.152,102.371 204.605,100.373 C208.057,98.3756 210.721,102.979 207.268,104.976 C203.816,106.974 206.479,111.577 209.931,109.58 C213.384,107.582 216.047,112.185 212.595,114.183 C209.142,116.18 211.805,120.784 215.258,118.786 C218.71,116.789 221.374,121.392 217.921,123.389 C214.469,125.387 217.132,129.99 220.584,127.993 C224.037,125.995 226.7,130.598 223.248,132.596 C219.795,134.593 222.458,139.197 225.911,137.199 C229.364,135.202 232.027,139.805 228.574,141.803 C225.122,143.8 227.785,148.403 231.237,146.406 C234.69,144.408 237.353,149.012 233.901,151.009 C230.448,153.007 233.111,157.61 236.564,155.612 C240.017,153.615 242.68,158.218 239.227,160.216' style='fill:none;stroke:#7F7F7F;stroke-width:2.0px;stroke-linecap:butt;stroke-linejoin:miter;stroke-opacity:1' />
<text x='108.5' y='187.4' class='atom-1' style='font-size:40px;font-style:normal;font-weight:normal;fill-opacity:1;stroke:none;font-family:sans-serif;text-anchor:start;fill:#000000' >N</text>
<text x='16.4' y='134.3' class='atom-2' style='font-size:40px;font-style:normal;font-weight:normal;fill-opacity:1;stroke:none;font-family:sans-serif;text-anchor:start;fill:#000000' >O</text>
</svg>

<svg height="256" viewBox="0 0 256 256" width="256" xmlns="http://www.w3.org/2000/svg"><path d="m0 0h256v256h-256z" fill="#fff"/><g fill="none" stroke-width="2"><path d="m212.6 114.2-76.6 44.3" stroke="#000"/><path d="m109 151.6-61.1-35.2" stroke="#000"/><path d="m101 165.4-61.1-35.2" stroke="#000"/><path d="m185.962 68.15c-3.453 1.998-.789 6.601 2.663 4.603 3.453-1.997 6.116 2.606 2.664 4.604-3.453 1.997-.79 6.601 2.663 4.603 3.452-1.997 6.116 2.606 2.663 4.603-3.452 1.998-.789 6.601 2.663 4.604 3.453-1.998 6.116 2.605 2.664 4.603-3.453 1.997-.79 6.601 2.663 4.603 3.452-1.997 6.116 2.606 2.663 4.603-3.452 1.998-.789 6.601 2.663 4.604 3.453-1.998 6.116 2.605 2.664 4.603-3.453 1.997-.79 6.601 2.663 4.603 3.452-1.997 6.116 2.606 2.663 4.603-3.452 1.998-.789 6.601 2.663 4.604 3.453-1.998 6.116 2.605 2.664 4.603-3.453 1.997-.79 6.601 2.663 4.603 3.453-1.997 6.116 2.606 2.663 4.604-3.452 1.997-.789 6.6 2.663 4.603 3.453-1.998 6.116 2.606 2.664 4.603-3.453 1.998-.79 6.601 2.663 4.603 3.453-1.997 6.116 2.606 2.663 4.604" stroke="#7f7f7f"/></g><text font-family="sans-serif" font-size="40" x="108.5" y="187.4">N</text><text font-family="sans-serif" font-size="40" x="16.4" y="134.3">O</text></svg>
